X:1
T:Title
%%score { ( 1 4 ) | ( 2 3 ) }
L:1/8
M:3/4
K:G
V:1 treble nm="Grand Piano"
V:4 treble 
V:2 bass 
V:3 bass 
V:1
 z2 z2 [B,D]2 | [B,D]2 [CE]2 [A,F]2 | [B,G]2 [Ec]2 [DB]2 | [EB]4 [CA]2 | [CA]4 [DA]2 | %5
 [Dd]4 [Dd]2 | [Ed]4 [E^c]2 | c2 E2 F2 | [B,G]4 [B,D]2 | [B,D]2 [CE]2 [A,F]2 | [B,G]2 [Ec]2 [DB]2 | %11
 [DB]4 [CA]2 | [CA]4 [DB]2 | d2 c2 [CFA]2 | G4 FG | A4 [B,G]2 | [B,G]4 z2 | G2 F3 E | D4 E2 | F6- | %20
 F4 z2 | c2 B3 A | d4 c2 | [DB]6- | [DB]4 D2 | z2 G2 B2 | d2 ^c2 [Ad]2 | [^Ge]4 [EGB]2 | %28
 [EAd]4 [EAc]2 | [DGB]2 [B,D]3 [Ec] | [DB]4 [CA]2 | [B,G]6- |[M:2/4] [B,G]4 |] %33
V:2
 z2 z2 [G,,G,]2 | [G,,G,]4 [G,,G,]2 | [G,,G,]4 [G,,G,]2 | [C,E,]4 [C,A,]2 | [C,A,]4 [C,F,]2 | %5
 [B,,G,]4 [B,,G,]2 | [E,^G,]4 [A,,A,]2 | [D,D]2- [D,G,D]2 [D,A,C]2 | [G,,G,]4 [G,,G,]2 | %9
 [G,,G,]4 [G,,G,]2 | [G,,G,]4 [G,,G,]2 | [C,E,]4 [C,A,]2 | [C,A,]4 [G,,G,]2 | ^G,2 z2 z2 | %14
 [E,B,]4 [D,CD][D,B,D] | [D,F,C]4 [G,,G,]2 | [G,,G,]4 z2 | [D,B,D]2 [D,A,D]3 [D,G,D] | %18
 [D,F,]4 [D,G,D]2 | [D,A,D]6- | [D,A,D]4 z2 | [D,F,D]2 [D,G,D]3 [D,CD] | [D,B,D]4 [D,F,D]2 | %23
 [G,,G,]6- | [G,,G,]4 [G,B,]2 | [G,B,]4 [G,DG]2 | [=F,A,]4 [F,A,]2 | [E,B,]4 E,2 | A,4 C,2 | %29
 D,2 D,3 [D,G,] | [D,F,]4 [D,F,]2 | [G,,G,]6- |[M:2/4] [G,,G,]4 |] %33
V:3
 x6 | x6 | x6 | x6 | x6 | x6 | x6 | F,2 z2 z2 | x6 | x6 | x6 | x6 | x6 | C,2- [C,A,]2 D,2 | x6 | %15
 x6 | x6 | x6 | x6 | x6 | x6 | x6 | x6 | x6 | x6 | x6 | x6 | x6 | x6 | x6 | x6 | x6 |[M:2/4] x4 |] %33
V:4
 x6 | x6 | x6 | x6 | x6 | x6 | x6 | x6 | x6 | x6 | x6 | x6 | x6 | E4 z2 | x6 | x6 | x6 | x6 | x6 | %19
 x6 | x6 | x6 | x6 | x6 | x6 | D4 z2 | A4 z2 | x6 | x6 | x6 | x6 | x6 |[M:2/4] x4 |] %33

